fs/split_vertical_28_regular.svg

<svg viewBox="0 0 28 28" fill="none" xmlns="http://www.w3.org/2000/svg" height="1em" width="1em">
  <path d="M12.9977 25.25C12.9977 25.6642 13.3335 26 13.7478 26C14.1621 26 14.4979 25.6642 14.4979 25.25L14.4979 2.75C14.4979 2.33579 14.1621 2 13.7478 2C13.3335 2 12.9977 2.33579 12.9977 2.75L12.9977 25.25ZM4.75051 4C3.23145 4 2 5.23122 2 6.75V21.2501C2 22.7688 3.23145 24.0001 4.75051 24.0001H11.9975V22.5001H4.75051C4.06003 22.5001 3.50028 21.9404 3.50028 21.2501V6.75C3.50028 6.05964 4.06003 5.5 4.75051 5.5H11.9975V4H4.75051ZM22.7495 22.5001H15.4981V24.0001H22.7495C24.2686 24.0001 25.5 22.7688 25.5 21.2501V6.75C25.5 5.23122 24.2686 4 22.7495 4H15.4981V5.5H22.7495C23.44 5.5 23.9997 6.05964 23.9997 6.75V21.2501C23.9997 21.9404 23.44 22.5001 22.7495 22.5001Z" fill="#212121"/>
</svg>

<svg viewBox="0 0 28 28" fill="none" xmlns="http://www.w3.org/2000/svg" height="1em" width="1em">
  <path d="M12.998 25.25a.75.75 0 0 0 1.5 0V2.75a.75.75 0 0 0-1.5 0v22.5ZM4.75 4A2.75 2.75 0 0 0 2 6.75v14.5A2.75 2.75 0 0 0 4.75 24h7.248v-1.5H4.75a1.25 1.25 0 0 1-1.25-1.25V6.75c0-.69.559-1.25 1.25-1.25h7.247V4H4.75Zm17.998 18.5H15.5V24h7.25a2.75 2.75 0 0 0 2.751-2.75V6.75A2.75 2.75 0 0 0 22.75 4h-7.252v1.5h7.252c.69 0 1.25.56 1.25 1.25v14.5c0 .69-.56 1.25-1.25 1.25Z" fill="#212121"/>
</svg>
